actions/24/help-about.svg

<?xml version="1.0" encoding="UTF-8" standalone="no"?>
<svg
   xmlns:dc="http://purl.org/dc/elements/1.1/"
   xmlns:cc="http://creativecommons.org/ns#"
   xmlns:rdf="http://www.w3.org/1999/02/22-rdf-syntax-ns#"
   xmlns:svg="http://www.w3.org/2000/svg"
   xmlns="http://www.w3.org/2000/svg"
   xmlns:xlink="http://www.w3.org/1999/xlink"
   version="1.1"
   width="24"
   height="24"
   id="svg3874">
  <defs
     id="defs3876">
    <linearGradient
       x1="23.470181"
       y1="11.209872"
       x2="23.470181"
       y2="35.051075"
       id="linearGradient2907"
       xlink:href="#linearGradient3881"
       gradientUnits="userSpaceOnUse"
       gradientTransform="matrix(0.77056228,0,0,0.77077837,-4.5546733,17.801037)" />
    <linearGradient
       id="linearGradient3881">
      <stop
         id="stop3883"
         style="stop-color:#ffffff;stop-opacity:1"
         offset="0" />
      <stop
         id="stop3885"
         style="stop-color:#ffffff;stop-opacity:0.23529412"
         offset="0.33380178" />
      <stop
         id="stop3887"
         style="stop-color:#ffffff;stop-opacity:0.15686275"
         offset="0.67927718" />
      <stop
         id="stop3889"
         style="stop-color:#ffffff;stop-opacity:0.39215687"
         offset="1" />
    </linearGradient>
    <linearGradient
       x1="11.566265"
       y1="22.292103"
       x2="15.214532"
       y2="33.95525"
       id="linearGradient3683"
       xlink:href="#linearGradient8265-821-176-38-919-66-249"
       gradientUnits="userSpaceOnUse"
       gradientTransform="matrix(0.4893617,0,0,0.4893617,1.7131795,22.728095)" />
    <linearGradient
       id="linearGradient8265-821-176-38-919-66-249">
      <stop
         id="stop2687"
         style="stop-color:#ffffff;stop-opacity:0.27450982"
         offset="0" />
      <stop
         id="stop2689"
         style="stop-color:#ffffff;stop-opacity:0"
         offset="1" />
    </linearGradient>
    <radialGradient
       cx="13.138569"
       cy="25.625349"
       r="13.931416"
       fx="13.138569"
       fy="25.625349"
       id="radialGradient3627"
       xlink:href="#linearGradient3846"
       gradientUnits="userSpaceOnUse"
       gradientTransform="matrix(0,1.2347038,-1.4762672,0,46.15859,-3.609815)" />
    <linearGradient
       id="linearGradient3846">
      <stop
         id="stop3848"
         style="stop-color:#fff3cb;stop-opacity:1"
         offset="0" />
      <stop
         id="stop3850"
         style="stop-color:#fdde76;stop-opacity:1"
         offset="0.26238" />
      <stop
         id="stop3852"
         style="stop-color:#f9c440;stop-opacity:1"
         offset="0.66093999" />
      <stop
         id="stop3854"
         style="stop-color:#e48b20;stop-opacity:1"
         offset="1" />
    </linearGradient>
    <linearGradient
       x1="21.483376"
       y1="36.255058"
       x2="21.483376"
       y2="9.5799999"
       id="linearGradient3629"
       xlink:href="#linearGradient3856"
       gradientUnits="userSpaceOnUse"
       gradientTransform="matrix(0.77056228,0,0,0.77077837,-4.5542786,1.800642)" />
    <linearGradient
       id="linearGradient3856">
      <stop
         id="stop3858"
         style="stop-color:#b67926;stop-opacity:1"
         offset="0" />
      <stop
         id="stop3860"
         style="stop-color:#eab41a;stop-opacity:1"
         offset="1" />
    </linearGradient>
    <linearGradient
       id="linearGradient8838">
      <stop
         id="stop8840"
         style="stop-color:#000000;stop-opacity:1"
         offset="0" />
      <stop
         id="stop8842"
         style="stop-color:#000000;stop-opacity:0"
         offset="1" />
    </linearGradient>
    <radialGradient
       cx="62.625"
       cy="4.625"
       r="10.625"
       fx="62.625"
       fy="4.625"
       id="radialGradient3872"
       xlink:href="#linearGradient8838"
       gradientUnits="userSpaceOnUse"
       gradientTransform="matrix(1.0352941,0,0,0.42352883,-52.835297,25.541176)" />
  </defs>
  <metadata
     id="metadata3879">
    <rdf:RDF>
      <cc:Work
         rdf:about="">
        <dc:format>image/svg+xml</dc:format>
        <dc:type
           rdf:resource="http://purl.org/dc/dcmitype/StillImage" />
        <dc:title />
      </cc:Work>
    </rdf:RDF>
  </metadata>
  <g
     transform="translate(0,-8)"
     id="layer1">
    <path
       d="M 23,27.499999 C 23,29.985281 18.075131,32 12,32 5.9248685,32 0.99999999,29.985281 0.99999999,27.499999 0.99999999,25.014718 5.9248685,23 12,23 c 6.075131,0 11,2.014718 11,4.499999 l 0,0 z"
       id="path8836"
       style="opacity:0.3;fill:url(#radialGradient3872);fill-opacity:1;fill-rule:evenodd;stroke:none;stroke-width:0.99999988;marker:none;visibility:visible;display:inline;overflow:visible" />
    <path
       d="m 12.000001,9.4961357 c 0.708911,0 2.994425,5.7107023 3.567948,6.1275073 0.57352,0.416804 6.709462,0.826364 6.928527,1.500768 0.219066,0.674404 -4.504349,4.613371 -4.723415,5.287775 -0.219065,0.674404 1.287639,6.638229 0.714118,7.055033 C 17.913658,29.884024 12.708912,26.607738 12,26.607738 c -0.708911,0 -5.9136574,3.276286 -6.4871791,2.859481 C 4.9392998,29.050415 6.4460042,23.086589 6.2269387,22.412186 6.007873,21.737782 1.2844585,17.798814 1.5035242,17.12441 1.7225898,16.450007 7.8585305,16.040447 8.4320523,15.623643 9.005573,15.206838 11.29109,9.4961357 12.000001,9.4961357 z"
       id="path1307"
       style="fill:url(#radialGradient3627);fill-opacity:1;fill-rule:nonzero;stroke:url(#linearGradient3629);stroke-width:0.99227142;stroke-linecap:butt;stroke-linejoin:round;stroke-miterlimit:4;stroke-opacity:1;stroke-dasharray:none;stroke-dashoffset:0;marker:none;visibility:visible;display:inline;overflow:visible" />
    <path
       d="m 11.96875,26.09375 c -0.45703,0.693479 -1.679762,2.629165 -3.03125,5.8125 A 0.43670935,0.43670935 0 0 1 8.59375,32.1875 c -2.1354674,0.348211 -4.8091853,0.716906 -6.5625,1.15625 1.1001782,1.3189 2.393494,2.529956 3.625,3.78125 L 20.8125,34.40625 c 0.353244,-0.353813 0.697176,-0.697415 1.0625,-1.0625 -2.051482,-0.507486 -4.36574,-0.808235 -6.5,-1.15625 a 0.43670935,0.43670935 0 0 1 -0.34375,-0.25 c -1.039472,-2.413271 -2.582922,-5.037031 -3.0625,-5.84375 z"
       transform="translate(3.9467e-4,-16.000395)"
       id="path3681"
       style="opacity:0.8;fill:url(#linearGradient3683);fill-opacity:1;fill-rule:nonzero;stroke:none;stroke-width:1;marker:none;visibility:visible;display:inline;overflow:visible;enable-background:accumulate" />
    <path
       d="m 12,26.9375 c -0.289389,0.492394 -0.61844,1.165503 -0.96875,1.875 -0.361907,0.732986 -0.746865,1.511515 -1.0625,2.125 C 9.8109327,31.244242 9.6704356,31.520046 9.53125,31.75 9.3920644,31.979954 9.3680081,32.138801 9,32.40625 8.6315646,32.674009 8.4494574,32.657308 8.1875,32.71875 7.9255426,32.78019 7.6222575,32.819484 7.28125,32.875 c -0.6820149,0.111033 -1.5021108,0.22551 -2.3125,0.34375 -0.7742066,0.112961 -1.5055387,0.221892 -2.0625,0.34375 0.3780266,0.425859 0.9075435,0.983352 1.46875,1.53125 0.5845803,0.570717 1.1708703,1.135202 1.65625,1.625 0.2426898,0.244899 0.4494983,0.484046 0.625,0.6875 0.1755017,0.203454 0.3283605,0.286554 0.46875,0.71875 0.1407051,0.433167 0.085066,0.575594 0.0625,0.84375 C 7.1649339,39.236906 7.115147,39.533479 7.0625,39.875 6.9572061,40.558043 6.7943936,41.380117 6.65625,42.1875 6.5239085,42.960973 6.3999,43.713286 6.34375,44.28125 6.869114,44.051705 7.547246,43.7136 8.25,43.34375 8.9758699,42.961734 9.7261784,42.562086 10.34375,42.25 c 0.308786,-0.156043 0.564288,-0.301637 0.8125,-0.40625 0.248212,-0.104613 0.387156,-0.1875 0.84375,-0.1875 0.456594,0 0.595538,0.08289 0.84375,0.1875 0.248212,0.104613 0.503714,0.250207 0.8125,0.40625 0.617572,0.312086 1.36788,0.711734 2.09375,1.09375 0.702754,0.36985 1.380886,0.707955 1.90625,0.9375 -0.05615,-0.567964 -0.180159,-1.320277 -0.3125,-2.09375 -0.138144,-0.807383 -0.300956,-1.629457 -0.40625,-2.3125 -0.05265,-0.341521 -0.102434,-0.638094 -0.125,-0.90625 -0.02257,-0.268156 -0.0782,-0.410584 0.0625,-0.84375 0.14039,-0.432195 0.293248,-0.515296 0.46875,-0.71875 0.175502,-0.203454 0.38231,-0.442601 0.625,-0.6875 0.48538,-0.489798 1.07167,-1.054283 1.65625,-1.625 0.561206,-0.547898 1.090723,-1.105391 1.46875,-1.53125 -0.556961,-0.121858 -1.288293,-0.230789 -2.0625,-0.34375 C 18.220861,33.10051 17.400765,32.986033 16.71875,32.875 16.377743,32.819484 16.074457,32.780192 15.8125,32.71875 15.550543,32.657308 15.368436,32.67401 15,32.40625 14.631991,32.138801 14.607936,31.979954 14.46875,31.75 14.329564,31.520046 14.189067,31.244242 14.03125,30.9375 13.715615,30.324015 13.330657,29.545486 12.96875,28.8125 12.618441,28.103003 12.289388,27.429894 12,26.9375 z"
       transform="translate(3.9467e-4,-16.000395)"
       id="path2903"
       style="opacity:0.8;fill:none;stroke:url(#linearGradient2907);stroke-width:0.99227142;stroke-linecap:butt;stroke-linejoin:round;stroke-miterlimit:4;stroke-opacity:1;stroke-dasharray:none;stroke-dashoffset:0;marker:none;visibility:visible;display:inline;overflow:visible" />
  </g>
</svg>

<svg xmlns="http://www.w3.org/2000/svg" xmlns:xlink="http://www.w3.org/1999/xlink" viewBox="0 0 24 24"><defs><linearGradient x1="23.47" y1="11.21" x2="23.47" y2="35.051" id="j" xlink:href="#a" gradientUnits="userSpaceOnUse" gradientTransform="matrix(.77056 0 0 .77078 -4.555 17.8)"/><linearGradient id="a"><stop offset="0" stop-color="#fff"/><stop offset=".334" stop-color="#fff" stop-opacity=".235"/><stop offset=".679" stop-color="#fff" stop-opacity=".157"/><stop offset="1" stop-color="#fff" stop-opacity=".392"/></linearGradient><linearGradient x1="11.566" y1="22.292" x2="15.215" y2="33.955" id="i" xlink:href="#b" gradientUnits="userSpaceOnUse" gradientTransform="translate(1.713 22.728) scale(.48936)"/><linearGradient id="b"><stop offset="0" stop-color="#fff" stop-opacity=".275"/><stop offset="1" stop-color="#fff" stop-opacity="0"/></linearGradient><radialGradient cx="13.139" cy="25.625" r="13.931" fx="13.139" fy="25.625" id="g" xlink:href="#c" gradientUnits="userSpaceOnUse" gradientTransform="matrix(0 1.2347 -1.47627 0 46.16 -3.61)"/><linearGradient id="c"><stop offset="0" stop-color="#fff3cb"/><stop offset=".262" stop-color="#fdde76"/><stop offset=".661" stop-color="#f9c440"/><stop offset="1" stop-color="#e48b20"/></linearGradient><linearGradient x1="21.483" y1="36.255" x2="21.483" y2="9.58" id="h" xlink:href="#d" gradientUnits="userSpaceOnUse" gradientTransform="matrix(.77056 0 0 .77078 -4.554 1.8)"/><linearGradient id="d"><stop offset="0" stop-color="#b67926"/><stop offset="1" stop-color="#eab41a"/></linearGradient><linearGradient id="e"><stop offset="0"/><stop offset="1" stop-opacity="0"/></linearGradient><radialGradient cx="62.625" cy="4.625" r="10.625" fx="62.625" fy="4.625" id="f" xlink:href="#e" gradientUnits="userSpaceOnUse" gradientTransform="matrix(1.0353 0 0 .42353 -52.835 25.54)"/></defs><path d="M23 27.5c0 2.485-4.925 4.5-11 4.5S1 29.985 1 27.5 5.925 23 12 23s11 2.015 11 4.5z" opacity=".3" fill="url(#f)" fill-rule="evenodd" overflow="visible" transform="translate(0 -8)"/><path d="M12 9.496c.71 0 2.994 5.71 3.568 6.128.573.416 6.71.826 6.928 1.5.22.675-4.504 4.614-4.723 5.288-.22.675 1.288 6.638.714 7.055-.573.417-5.778-2.86-6.487-2.86-.71 0-5.914 3.277-6.487 2.86-.574-.417.933-6.38.714-7.055-.22-.674-4.943-4.613-4.723-5.288.22-.674 6.355-1.084 6.928-1.5.574-.417 2.86-6.128 3.568-6.128z" fill="url(#g)" stroke="url(#h)" stroke-width=".992" stroke-linejoin="round" overflow="visible" transform="translate(0 -8)"/><path d="M11.97 26.094c-.458.693-1.68 2.63-3.033 5.812a.437.437 0 0 1-.343.282c-2.136.348-4.81.716-6.563 1.156 1.1 1.32 2.397 2.53 3.628 3.78l15.157-2.718 1.062-1.062c-2.05-.508-4.366-.808-6.5-1.157a.437.437 0 0 1-.344-.25c-1.038-2.413-2.582-5.037-3.06-5.843z" transform="translate(0 -24)" opacity=".8" fill="url(#i)" overflow="visible"/><path d="M12 26.938c-.29.492-.618 1.165-.97 1.875a155.82 155.82 0 0 1-1.06 2.125c-.16.306-.3.582-.44.812-.138.23-.162.39-.53.656-.368.268-.55.25-.813.313-.26.06-.565.1-.906.153-.68.11-1.5.226-2.31.344-.773.112-1.505.22-2.062.343.378.426.908.984 1.47 1.53.584.57 1.17 1.137 1.655 1.627.244.244.45.483.626.686.175.204.33.287.47.72.14.432.083.575.06.843-.02.267-.07.563-.124.905-.106.685-.27 1.507-.407 2.315-.133.773-.257 1.525-.313 2.093a30.494 30.494 0 0 0 1.906-.936c.726-.38 1.476-.78 2.094-1.093.31-.157.564-.303.812-.407.247-.104.386-.187.843-.187.457 0 .596.083.844.188s.503.25.812.407c.617.313 1.367.713 2.093 1.095.703.37 1.38.71 1.906.938-.057-.567-.18-1.32-.313-2.093-.138-.807-.3-1.63-.407-2.312-.053-.342-.103-.638-.126-.906-.022-.27-.078-.412.063-.845.14-.432.293-.515.47-.72.174-.202.38-.44.624-.686.486-.49 1.07-1.055 1.657-1.625a32.91 32.91 0 0 0 1.47-1.532c-.558-.12-1.29-.23-2.064-.343-.81-.12-1.63-.234-2.31-.345-.342-.056-.646-.095-.907-.156-.262-.064-.445-.047-.813-.315-.368-.267-.392-.426-.53-.656-.14-.23-.28-.507-.44-.814-.314-.612-.7-1.39-1.06-2.124-.352-.71-.68-1.382-.97-1.875z" transform="translate(0 -24)" opacity=".8" fill="none" stroke="url(#j)" stroke-width=".992" stroke-linejoin="round" overflow="visible"/></svg>
